**kern	**text
*clefG2	*
*k[f#c#g#]	*
*M4/4	*
*MM160	*
=1	=1
4r	.
8aL	か
8aJ	が
4a	く
4a	の
=2	=2
8g#L	げ
8g#	ん
8a	か
8bJ	い
4a	を
8aL	こ
8bJ	え
=3	=3
4cc#'	て
8aL	わ
8aJ	た
4a	し
4a	わ
=4	=4
4cc#	き
8ddL	た
8cc#J	ん
4a	だ
[4g#	よ
=5	=5
8g#]	.
8r	.
8aL	ね
8aJ	ぎ
4a	わ
8aL	つ
8aJ	い
=6	=6
8aL	て
8g#	な
8a	い
8bJ	け
4a	ど
8aL	で
8bJ	き
=7	=7
4cc#	れ
4a	ば
4a	ほ
8aL	し
8g#J	い
=8	=8
2.a	な
8aL	あ
8g#J	の
=9	=9
8a	ね
4.f#	は
8a	や
[4.a	く
=10	=10
2a]	.
8aL	ぱ
8b	そ
8a	こ
8bJ	ん
=11	=11
8a	に
4.e	れ
8a	て
[4.a	よ
=12	=12
2a]	.
8aL	ど
8b	お
8a	し
8bJ	た
=13	=13
8cc#L	の
8ddJ	ぱ
4cc#	あ
4b	け
4a	い
=14	=14
8a	じ
4dd	ず
8cc#	う
4b	と
4a	み
=15	=15
8a	つ
4.a	め
8b	て
[4.b	る
=16	=16
2b]	.
8bL	き
8cc#	み
8f#	の
8aJ	こ
=17	=17
8bL	と
8aJ	み
8r	.
8a	く
4b'	み
8bL	く
8bJ	に
=18	=18
4b	し
8aL	て
8bJ	あ
8a	げ
4.cc#	る
=19	=19
8r	.
4a	う
8a	た
4b	わ
8bL	ま
8cc#J	だ
=20	=20
8ddL	ね
8eeJ	が
4dd	ん
4cc#	ば
8cc#L	る
8bJ	か
=21	=21
8b	ら
4a	み
8a	く
4b'	み
8bL	く
8bJ	に
=22	=22
4b	し
8aL	て
8bJ	あ
8aL	げ
8cc#	る
8cc#	だ
8ddJ	か
=23	=23
8eeL	ら
8eeJ	ちょ
4a	お
4a	と
8r	.
8a	か
=24	=24
8bL	く
8cc#J	ご
4b	を
4dd	し
8cc#L	て
8aJ	て
=25	=25
8b	よ
[4.a	ね
2a_	.
=26	=26
1a_	.
=27	=27
8a]	.
8r	.
4r	.
2r	.
=28	=28
8r	.
4a	し
8b	て
4cc#	あ
8bL	げ
8aJ	る
=29	=29
8b	か
[4.a	ら
2a_	.
=30	=30
1a]	.
=31	=31
1r	.
=32	=32
1r	.
=33	=33
8r	.
8a	み
8r	.
8a	く
4b'	み
8bL	く
8bJ	に
=34	=34
4b	し
8aL	て
8bJ	や
8a	ん
4.cc#	よ
=35	=35
8r	.
4a	さ
8a	い
4b	ご
8bL	ま
8cc#J	で
=36	=36
8ddL	ね
8eeJ	が
4dd	ん
4cc#	ば
8cc#L	る
8bJ	か
=37	=37
8bL	ら
8aJ	み
8r	.
8a	く
4b'	み
8bL	く
8bJ	に
=38	=38
4b	し
8aL	て
8bJ	や
8aL	ん
8cc#	よ
8cc#	だ
8ddJ	か
=39	=39
8eeL	ら
8eeJ	ちょ
4a	お
4a	と
8r	.
8a	ゆ
=40	=40
8bL	だ
8cc#J	ん
4b	を
4dd	し
8cc#L	て
8aJ	あ
=41	=41
8b	げ
[4.a	て
4.a]	.
8r	.
==	==
*-	*-
